client/src/assets/images/icon-symptoms-general-white.svg

<svg fill="none" height="61" viewBox="0 0 43 61" width="43" xmlns="http://www.w3.org/2000/svg" xmlns:xlink="http://www.w3.org/1999/xlink"><mask id="a" fill="#fff"><path d="m9.70667 4.53577 3.03213 3.81691.168-.14565-3.11934-4.95747-1.10225 1.96213-2.76055-3.36062-.70664.66985 3.62119 3.84688z" fill="#fff" stroke="#fff" stroke-width=".1"/></mask><mask id="b" fill="#fff"><path d="m12.097 0-.8004.194202 1.0408 4.346418 1.4069-.9805.6224 4.07636.1843-.03603-.2067-4.95103-1.634.97784z" fill="#fff" stroke="#fff" stroke-width=".1"/></mask><mask id="c" fill="#fff"><path d="m8.30989 8.54791 3.64851 1.78049.0751-.1692-4.12415-2.60695-.12517 1.87071-3.28058-1.53579-.29169.75709 4.10253 1.59234z" fill="#fff" stroke="#fff" stroke-width=".1"/></mask><g stroke="#fff" stroke-width="1.5"><path d="m31.5503 34.2945c.0021.0036.0054.0094.0094.0167l-1.4084.3592v20.9946h-19.0168v-23.311-1.3417l-1.14287.7028c-.21052.1295-.42197.2606-.63416.3921-.46552.2886-.93459.5794-1.40513.8601-.80902.4767-1.54578.8944-2.39283 1.2138-.49974.1777-.98542.3284-1.67605.3363-.36138-.0004-.77962-.0537-1.21992-.2336l.00002-.0001-.00702-.0028c-.4276-.1698-.8716-.494-1.17121-.8727-.632183-.8179-.726516-1.6149-.735294-2.3135.006941-.815.156816-1.5739.414724-2.5226.2599-.9376.63473-2.012 1.14999-3.3048 1.02986-2.5826 2.6062-5.9961 4.9087-10.569l.00019-.0004c.566-1.1257 1.93866-1.5794 3.06726-1.0115h.0001c.3116.1568.5707.3752.7714.6335-.3005.9524-.4637 1.9653-.4637 3.0152 0 .2582.0101.5136.0295.766-1.86435 3.7482-3.17755 6.6369-4.0248 8.7445l-.84623 2.105 1.93414-1.1859c.78327-.4803 1.59947-.9612 2.42979-1.3726.7327-.3425 1.3963-.6423 2.1897-.8086l.0737-.0154.0691-.0297c.2643-.1138.5546-.1775.8614-.1775h1.2998c1.6787 1.2639 3.7666 2.0171 6.0272 2.0171s4.3478-.7529 6.0272-2.0171h1.3005c.3901 0 .7552.1036 1.074.2844l.0633.0358.0689.0231c.3653.1221.7868.3007 1.2455.5632l.0024.0013c1.213.6884 2.6731 1.9453 4.1001 4.1005 2.8647 4.3495 5.7172 12.2182 6.9817 27.409.1038 1.2553-.8305 2.3586-2.0876 2.4642-.0659.0051-.1292.0076-.1918.0076-1.1765 0-2.176-.9036-2.2751-2.0979-1.0534-12.8804-3.3443-20.0461-5.3828-23.826l-.0017-.0031c-.0052-.0094-.0097-.0172-.0129-.0228zm0 0-.0024-.0041c-.0009-.0015.0006.001.0024.0041z"/><path d="m28.4265 17.3341c0 4.2991-3.4852 7.7843-7.7843 7.7843s-7.7843-3.4852-7.7843-7.7843c0-4.2992 3.4852-7.7843 7.7843-7.7843s7.7843 3.4851 7.7843 7.7843z"/><g fill="#808080"><path d="m9.70667 4.53577 1.17453-.93302-1.49896-1.88689-1.03127 2.17799zm3.03213 3.81691-1.1745.93302.9739 1.226 1.1831-1.02557zm.168-.14565.9825 1.13345.9725-.84299-.6854-1.08931zm-3.11934-4.95747 1.26954-.79886-1.34258-2.13376-1.23473 2.19796zm-1.10225 1.96213-1.15908.95212 1.39244 1.69511 1.07442-1.91257zm-2.76055-3.36062 1.15908-.952116-1.02224-1.244434-1.16878 1.107932zm-.70664.66985-1.03194-1.08862-1.08483 1.02835 1.02455 1.08841zm3.62119 3.84688-1.09222 1.02813 1.50701 1.60093.9409-1.98714zm-.30705-.89901 3.03214 3.81691 2.349-1.86604-3.0321-3.81691zm5.18914 4.01734.168-.14565-1.965-2.2669-.168.14565zm.4551-2.07795-3.1194-4.95748-2.53912 1.59771 3.11942 4.95747zm-5.69671-4.89328-1.10225 1.96213 2.61555 1.46932 1.10221-1.96213zm1.3646 1.74467-2.76055-3.360616-2.31816 1.904236 2.76055 3.36062zm-4.95157-3.497118-.70664.669848 2.06388 2.17724.70664-.66984zm-.76692 2.786608 3.62119 3.84687 2.18443-2.05627-3.62119-3.84688zm6.0691 3.46066.8675-1.83203-2.71143-1.28384-.86746 1.83202z" mask="url(#a)"/><path d="m12.097 0 1.479-.250084-.2684-1.587206-1.5644.37959zm-.8004.194202-.3537-1.457702-1.45329.352655.34826 1.454365zm1.0408 4.346418-1.4587.34932.5121 2.13878 1.8043-1.25749zm1.4069-.9805 1.4828-.22641-.3637-2.381919-1.9768 1.377729zm.6224 4.07636-1.4828.22641.236 1.54569 1.5346-.29996zm.1843-.03603.2878 1.47213 1.2647-.24721-.0538-1.2875zm-.2067-4.95103 1.4987-.06257-.1052-2.5193982-2.1637 1.2948382zm-1.634.97784-1.479.25008.3659 2.16408 1.8833-1.12702zm-.9671-5.08496-.8003.1942.7074 2.9154.8004-.1942zm-1.90533 2.00122 1.04083 4.34642 2.9175-.69864-1.0408-4.346415zm3.35723 5.22771 1.4068-.9805-1.7153-2.46121-1.4068.98049zm-.9337-1.98469.6225 4.07635 2.9656-.45283-.6224-4.07635zm2.3931 5.32208.1843-.03604-.5755-2.94427-.1844.03603zm1.3952-1.57075-.2067-4.95102-2.9974.12515.2067 4.95102zm-2.4756-6.17558-1.6341.97784 1.5405 2.57427 1.6341-.97784zm.6152 2.01489-.6133-3.627264-2.958.500168.6133 3.627256z" mask="url(#b)"/><path d="m8.30989 8.54791.65784-1.34805-2.16433-1.05618.00649 2.40828zm3.64851 1.78049-.6579 1.348 1.3978.6821.6311-1.4215zm.0751-.1692 1.371.6086.5257-1.18422-1.0952-.69232zm-4.12415-2.60695.80147-1.26793-2.12991-1.34635-.16822 2.51414zm-.12517 1.87071-.63598 1.35854 1.98622.9298.14641-2.1882zm-3.28058-1.53579.63598-1.3585-1.45724-.6822-.57845 1.50143zm-.29169.75709-1.39971-.53927-.53793 1.39623 1.3949.54138zm4.10253 1.59234-.54275 1.3983 2.04867.7952-.00593-2.1976zm-.66239-.34063 3.64845 1.78043 1.3157-2.6961-3.64847-1.78044zm5.67735 1.04103.0751-.1692-2.742-1.21725-.0751.16917zm-.4944-2.04574-4.12418-2.60694-1.60295 2.53585 4.12413 2.60693zm-6.42231-1.43915-.12517 1.87071 2.99331.20028.12517-1.87071zm2.00747.61235-3.28058-1.53579-1.27196 2.717 3.28058 1.53583zm-5.31627-.71656-.29169.75709 2.79943 1.07853.29168-.75708zm.56528 2.6947 4.10252 1.5923 1.0855-2.7967-4.10253-1.59231zm6.14526.1899-.00455-1.68863-2.99999.00809.00456 1.68864z" mask="url(#c)"/></g></g></svg>

<svg width="43" height="61" viewBox="0 0 43 61" fill="none" xmlns="http://www.w3.org/2000/svg">
<path d="M31.5503 34.2945C31.5524 34.2981 31.5557 34.3039 31.5597 34.3112L30.1513 34.6704V55.665H11.1345V32.354V31.0123L9.99163 31.7151C9.78111 31.8446 9.56966 31.9757 9.35747 32.1072C8.89195 32.3958 8.42288 32.6866 7.95234 32.9673C7.14332 33.444 6.40656 33.8617 5.55951 34.1811C5.05977 34.3588 4.57409 34.5095 3.88346 34.5174C3.52208 34.517 3.10384 34.4637 2.66354 34.2838L2.66356 34.2837L2.65654 34.2809C2.22894 34.1111 1.78494 33.7869 1.48533 33.4082C0.853147 32.5903 0.758814 31.7933 0.750036 31.0947C0.756977 30.2797 0.906852 29.5208 1.16476 28.5721C1.42466 27.6345 1.79949 26.5601 2.31475 25.2673C3.34461 22.6847 4.92095 19.2712 7.22345 14.6983L7.22364 14.6979C7.78964 13.5722 9.1623 13.1185 10.2909 13.6864L10.291 13.6864C10.6026 13.8432 10.8617 14.0616 11.0624 14.3199C10.7619 15.2723 10.5987 16.2852 10.5987 17.3351C10.5987 17.5933 10.6088 17.8487 10.6282 18.1011C8.76385 21.8493 7.45065 24.738 6.6034 26.8456L5.75717 28.9506L7.69131 27.7647C8.47458 27.2844 9.29078 26.8035 10.1211 26.3921C10.8538 26.0496 11.5174 25.7498 12.3108 25.5835L12.3845 25.5681L12.4536 25.5384C12.7179 25.4246 13.0082 25.3609 13.315 25.3609H14.6148C16.2935 26.6248 18.3814 27.378 20.642 27.378C22.9026 27.378 24.9898 26.6251 26.6692 25.3609H27.9697C28.3598 25.3609 28.7249 25.4645 29.0437 25.6453L29.107 25.6811L29.1759 25.7042C29.5412 25.8263 29.9627 26.0049 30.4214 26.2674L30.4238 26.2687C31.6368 26.9571 33.0969 28.214 34.5239 30.3692C37.3886 34.7187 40.2411 42.5874 41.5056 57.7782C41.6094 59.0335 40.6751 60.1368 39.418 60.2424C39.3521 60.2475 39.2888 60.25 39.2262 60.25C38.0497 60.25 37.0502 59.3464 36.9511 58.1521C35.8977 45.2717 33.6068 38.106 31.5683 34.3261L31.5666 34.323C31.5614 34.3136 31.5569 34.3058 31.5537 34.3002L31.5503 34.2945ZM31.5503 34.2945L31.5479 34.2904C31.547 34.2889 31.5485 34.2914 31.5503 34.2945Z" stroke="#fff" stroke-width="1.5"/>
<path d="M28.4265 17.3341C28.4265 21.6332 24.9413 25.1184 20.6422 25.1184C16.3431 25.1184 12.8579 21.6332 12.8579 17.3341C12.8579 13.0349 16.3431 9.5498 20.6422 9.5498C24.9413 9.5498 28.4265 13.0349 28.4265 17.3341Z" stroke="#fff" stroke-width="1.5"/>
<mask id="path-3-inside-1" fill="white">
<path d="M9.70667 4.53577L12.7388 8.35268L12.9068 8.20703L9.78746 3.24956L8.68521 5.21169L5.92466 1.85107L5.21802 2.52092L8.83921 6.3678L9.70667 4.53577Z" stroke="#fff" stroke-width="0.1"/>
</mask>
<path d="M9.70667 4.53577L10.8812 3.60275L9.38224 1.71586L8.35097 3.89385L9.70667 4.53577ZM12.7388 8.35268L11.5643 9.2857L12.5382 10.5117L13.7213 9.48613L12.7388 8.35268ZM12.9068 8.20703L13.8893 9.34048L14.8618 8.49749L14.1764 7.40818L12.9068 8.20703ZM9.78746 3.24956L11.057 2.4507L9.71442 0.31694L8.47969 2.5149L9.78746 3.24956ZM8.68521 5.21169L7.52613 6.16381L8.91857 7.85892L9.99299 5.94635L8.68521 5.21169ZM5.92466 1.85107L7.08374 0.898954L6.0615 -0.34548L4.89272 0.762452L5.92466 1.85107ZM5.21802 2.52092L4.18608 1.4323L3.10125 2.46065L4.1258 3.54906L5.21802 2.52092ZM8.83921 6.3678L7.74699 7.39593L9.254 8.99686L10.1949 7.00972L8.83921 6.3678ZM8.53216 5.46879L11.5643 9.2857L13.9133 7.41966L10.8812 3.60275L8.53216 5.46879ZM13.7213 9.48613L13.8893 9.34048L11.9243 7.07358L11.7563 7.21923L13.7213 9.48613ZM14.1764 7.40818L11.057 2.4507L8.51788 4.04841L11.6373 9.00588L14.1764 7.40818ZM8.47969 2.5149L7.37744 4.47703L9.99299 5.94635L11.0952 3.98422L8.47969 2.5149ZM9.84429 4.25957L7.08374 0.898954L4.76558 2.80319L7.52613 6.16381L9.84429 4.25957ZM4.89272 0.762452L4.18608 1.4323L6.24996 3.60954L6.9566 2.9397L4.89272 0.762452ZM4.1258 3.54906L7.74699 7.39593L9.93142 5.33966L6.31023 1.49278L4.1258 3.54906ZM10.1949 7.00972L11.0624 5.17769L8.35097 3.89385L7.48351 5.72587L10.1949 7.00972Z" fill="#808080" mask="url(#path-3-inside-1)" stroke="#fff" stroke-width="1.5"/>
<mask id="path-5-inside-2" fill="white">
<path d="M12.097 0L11.2966 0.194202L12.3374 4.54062L13.7443 3.56012L14.3667 7.63648L14.551 7.60045L14.3443 2.64942L12.7103 3.62726L12.097 0Z" stroke="#fff" stroke-width="0.1"/>
</mask>
<path d="M12.097 0L13.576 -0.250084L13.3076 -1.83729L11.7432 -1.4577L12.097 0ZM11.2966 0.194202L10.9429 -1.2635L9.48961 -0.910845L9.83787 0.54352L11.2966 0.194202ZM12.3374 4.54062L10.8787 4.88994L11.3908 7.02872L13.1951 5.77123L12.3374 4.54062ZM13.7443 3.56012L15.2271 3.33371L14.8634 0.951791L12.8866 2.32952L13.7443 3.56012ZM14.3667 7.63648L12.8839 7.86289L13.1199 9.40858L14.6545 9.10862L14.3667 7.63648ZM14.551 7.60045L14.8388 9.07258L16.1035 8.82537L16.0497 7.53787L14.551 7.60045ZM14.3443 2.64942L15.843 2.58685L15.7378 0.0674518L13.5741 1.36229L14.3443 2.64942ZM12.7103 3.62726L11.2313 3.87734L11.5972 6.04142L13.4805 4.9144L12.7103 3.62726ZM11.7432 -1.4577L10.9429 -1.2635L11.6503 1.6519L12.4507 1.4577L11.7432 -1.4577ZM9.83787 0.54352L10.8787 4.88994L13.7962 4.1913L12.7554 -0.155115L9.83787 0.54352ZM13.1951 5.77123L14.6019 4.79073L12.8866 2.32952L11.4798 3.31001L13.1951 5.77123ZM12.2614 3.78654L12.8839 7.86289L15.8495 7.41006L15.2271 3.33371L12.2614 3.78654ZM14.6545 9.10862L14.8388 9.07258L14.2633 6.12831L14.0789 6.16434L14.6545 9.10862ZM16.0497 7.53787L15.843 2.58685L12.8456 2.712L13.0523 7.66302L16.0497 7.53787ZM13.5741 1.36229L11.94 2.34013L13.4805 4.9144L15.1146 3.93656L13.5741 1.36229ZM14.1893 3.37718L13.576 -0.250084L10.618 0.250084L11.2313 3.87734L14.1893 3.37718Z" fill="#808080" mask="url(#path-5-inside-2)" stroke="#fff" stroke-width="1.5"/>
<mask id="path-7-inside-3" fill="white">
<path d="M8.30989 8.54791L11.9584 10.3284L12.0335 10.1592L7.90935 7.55225L7.78418 9.42296L4.5036 7.88717L4.21191 8.64426L8.31444 10.2366L8.30989 8.54791Z" stroke="#fff" stroke-width="0.1"/>
</mask>
<path d="M8.30989 8.54791L8.96773 7.19986L6.8034 6.14368L6.80989 8.55196L8.30989 8.54791ZM11.9584 10.3284L11.3005 11.6764L12.6983 12.3585L13.3294 10.937L11.9584 10.3284ZM12.0335 10.1592L13.4045 10.7678L13.9302 9.58358L12.835 8.89126L12.0335 10.1592ZM7.90935 7.55225L8.71082 6.28432L6.58091 4.93797L6.41269 7.45211L7.90935 7.55225ZM7.78418 9.42296L7.1482 10.7815L9.13442 11.7113L9.28083 9.5231L7.78418 9.42296ZM4.5036 7.88717L5.13958 6.52867L3.68234 5.84647L3.10389 7.3479L4.5036 7.88717ZM4.21191 8.64426L2.8122 8.10499L2.27427 9.50122L3.66917 10.0426L4.21191 8.64426ZM8.31444 10.2366L7.77169 11.6349L9.82036 12.4301L9.81443 10.2325L8.31444 10.2366ZM7.65205 9.89597L11.3005 11.6764L12.6162 8.9803L8.96773 7.19986L7.65205 9.89597ZM13.3294 10.937L13.4045 10.7678L10.6625 9.55055L10.5874 9.71972L13.3294 10.937ZM12.835 8.89126L8.71082 6.28432L7.10787 8.82017L11.232 11.4271L12.835 8.89126ZM6.41269 7.45211L6.28752 9.32282L9.28083 9.5231L9.406 7.65239L6.41269 7.45211ZM8.42016 8.06446L5.13958 6.52867L3.86762 9.24567L7.1482 10.7815L8.42016 8.06446ZM3.10389 7.3479L2.8122 8.10499L5.61163 9.18352L5.90331 8.42644L3.10389 7.3479ZM3.66917 10.0426L7.77169 11.6349L8.85719 8.8382L4.75466 7.24589L3.66917 10.0426ZM9.81443 10.2325L9.80988 8.54387L6.80989 8.55196L6.81445 10.2406L9.81443 10.2325Z" fill="#808080" mask="url(#path-7-inside-3)" stroke="#fff" stroke-width="1.5"/>
</svg>
